icons/24x24_visible_outline.svg

<svg width="24" height="24" fill="none" xmlns="http://www.w3.org/2000/svg"><path fill-rule="evenodd" clip-rule="evenodd" d="M11 12a1 1 0 1 1 0-2 1 1 0 0 1 0 2Zm1-4a4 4 0 1 0 0 8 4 4 0 0 0 0-8Zm0 10c-3.857 0-7.336-2.384-8.86-6C4.664 8.384 8.143 6 12 6c3.857 0 7.336 2.384 8.86 6-1.524 3.616-5.003 6-8.86 6Zm0-14C6.922 4 2.6 7.337 1 12c1.6 4.663 5.922 8 11 8s9.4-3.337 11-8c-1.6-4.663-5.922-8-11-8Z" fill="#000"/></svg>

<svg xmlns="http://www.w3.org/2000/svg" width="24" height="24" viewBox="0 0 24 24">
  <path fill-rule="evenodd" d="M11,12 C10.448,12 10,11.552 10,11 C10,10.448 10.448,10 11,10 C11.552,10 12,10.448 12,11 C12,11.552 11.552,12 11,12 M12,8 C9.791,8 8,9.791 8,12 C8,14.209 9.791,16 12,16 C14.209,16 16,14.209 16,12 C16,9.791 14.209,8 12,8 M12,18 C8.143,18 4.664,15.616 3.14,12 C4.664,8.384 8.143,6 12,6 C15.857,6 19.336,8.384 20.86,12 C19.336,15.616 15.857,18 12,18 M12,4 C6.922,4 2.6,7.337 1,12 C2.6,16.663 6.922,20 12,20 C17.078,20 21.4,16.663 23,12 C21.4,7.337 17.078,4 12,4"/>
</svg>
